docs/.gitbook/assets/icon-megaphone-16@light.svg

<svg width="32" height="32" viewBox="0 0 16 16" fill="none" xmlns="http://www.w3.org/2000/svg">
<rect x="0" y="0" width="16" height="16" fill="#fff"/>
<path fill-rule="evenodd" clip-rule="evenodd" d="M14.6922 1.14423C14.8856 1.28543 15 1.51052 15 1.75001V11.25C15 11.4895 14.8856 11.7146 14.6922 11.8558C14.4988 11.997 14.2495 12.0373 14.0214 11.9643L8 10.0375V12.5C8 13.8807 6.88071 15 5.5 15C4.11929 15 3 13.8807 3 12.5V9.89649C1.84575 9.57002 1 8.50878 1 7.25001V5.75001C1 4.23122 2.23122 3.00001 3.75 3.00001H7.88292L14.0214 1.03569C14.2495 0.962697 14.4988 1.00303 14.6922 1.14423ZM4.5 10V12.5C4.5 13.0523 4.94772 13.5 5.5 13.5C6.05228 13.5 6.5 13.0523 6.5 12.5V10H4.5ZM13.5 2.77747L8.22858 4.46432C8.15469 4.48797 8.07758 4.50001 8 4.50001H3.75C3.05964 4.50001 2.5 5.05965 2.5 5.75001V7.25001C2.5 7.94036 3.05964 8.50001 3.75 8.50001H7.25H8C8.07758 8.50001 8.15469 8.51204 8.22858 8.53569L13.5 10.2225V2.77747Z" fill="#000"/>
</svg>

<svg xmlns="http://www.w3.org/2000/svg" width="32" height="32" fill="none" viewBox="0 0 16 16"><path fill="#fff" d="M0 0h16v16H0z"/><path fill="#000" fill-rule="evenodd" d="M14.692 1.144A.75.75 0 0 1 15 1.75v9.5a.75.75 0 0 1-.979.714L8 10.037V12.5a2.5 2.5 0 0 1-5 0V9.896A2.75 2.75 0 0 1 1 7.25v-1.5A2.75 2.75 0 0 1 3.75 3h4.133l6.138-1.964a.75.75 0 0 1 .671.108M4.5 10v2.5a1 1 0 1 0 2 0V10zm9-7.223L8.229 4.464A.8.8 0 0 1 8 4.5H3.75c-.69 0-1.25.56-1.25 1.25v1.5c0 .69.56 1.25 1.25 1.25H8a.8.8 0 0 1 .229.036l5.271 1.687z" clip-rule="evenodd"/></svg>
